resources/haticons/SVG/nintendo3ds.svg

<!-- Generated by IcoMoon.io -->
<svg version="1.1" xmlns="http://www.w3.org/2000/svg" width="24" height="24" viewBox="0 0 24 24">
<title>nintendo3ds</title>
<path fill="#d12228" d="M17.653 16.63c0 0.393 0.319 0.712 0.712 0.712s0.712-0.319 0.712-0.712v0c0-0.393-0.319-0.712-0.712-0.712s-0.712 0.319-0.712 0.712v0zM8.203 20.868h7.575c0.3 0 0.524-0.225 0.544-0.524v-5.175c-0.020-0.282-0.263-0.525-0.544-0.507h-7.575c-0.001 0-0.003-0-0.004-0-0.293 0-0.531 0.233-0.54 0.524l-0 0.001v5.156c0 0.301 0.244 0.525 0.544 0.525zM21.254 17.343c0 0 0.001 0 0.001 0 0.403 0 0.729-0.326 0.729-0.729v0c0-0 0-0.001 0-0.001 0-0.403-0.327-0.73-0.73-0.73s-0.73 0.327-0.73 0.73c0 0.403 0.327 0.73 0.73 0.73v0zM19.811 17.324c-0.008-0-0.017-0-0.026-0-0.394 0-0.714 0.32-0.714 0.714s0.32 0.714 0.714 0.714c0.010 0 0.019-0 0.029-0.001l-0.001 0c0.382-0.015 0.687-0.329 0.687-0.713s-0.305-0.699-0.686-0.713l-0.001-0zM19.098 15.187c0 0.393 0.319 0.712 0.712 0.712s0.712-0.319 0.712-0.712v0c0-0.393-0.319-0.712-0.712-0.712s-0.712 0.319-0.712 0.712v0zM2.54 16.612c0 0.911 0.739 1.65 1.65 1.65s1.65-0.739 1.65-1.65v0c0-0.911-0.739-1.65-1.65-1.65s-1.65 0.739-1.65 1.65v0zM21.272 0h-18.544c-0.002 0-0.005-0-0.008-0-1.504 0-2.724 1.217-2.73 2.719v18.543c0.019 1.519 1.238 2.738 2.738 2.738h18.526c0.001 0 0.002 0 0.003 0 1.508 0 2.734-1.213 2.753-2.717l0-0.002v-18.544c-0.019-1.518-1.238-2.737-2.738-2.737zM23.185 21.281c-0.005 1.054-0.858 1.907-1.912 1.912h-18.545c-1.055-0.004-1.908-0.858-1.913-1.912v-8.456h22.369zM23.185 11.587h-22.37v-8.85c0.004-1.055 0.858-1.909 1.913-1.913h18.544c1.049 0 1.912 0.863 1.912 1.913v8.85zM17.409 3.112h-10.875c-0.3 0-0.544 0.263-0.544 0.563v5.475c0 0.3 0.226 0.563 0.544 0.563h10.875c0.301-0.002 0.544-0.247 0.544-0.548 0-0.005-0-0.011-0-0.016l0 0.001v-5.494c0-0 0-0.001 0-0.001 0-0.3-0.243-0.543-0.543-0.543-0 0-0.001 0-0.001 0h0z"></path>
</svg>

<svg xmlns="http://www.w3.org/2000/svg" width="24" height="24"><path fill="#d12228" d="M17.653 16.63a.712.712 0 0 0 1.424 0 .712.712 0 0 0-1.424 0zm-9.45 4.238h7.575c.3 0 .524-.225.544-.524v-5.175c-.02-.282-.263-.525-.544-.507H8.199a.54.54 0 0 0-.54.524v5.157c0 .301.244.525.544.525zm13.051-3.525h.001a.729.729 0 0 0 .729-.729v-.001a.73.73 0 1 0-.73.73zm-1.443-.019h-.026a.714.714 0 0 0 0 1.428l.029-.001h-.001a.714.714 0 0 0 .001-1.426h-.001zm-.713-2.137a.712.712 0 0 0 1.424 0 .712.712 0 0 0-1.424 0zM2.54 16.612a1.65 1.65 0 0 0 3.3 0 1.65 1.65 0 0 0-3.3 0zM21.272 0H2.72A2.73 2.73 0 0 0-.01 2.719v18.543C.009 22.781 1.228 24 2.728 24h18.529a2.753 2.753 0 0 0 2.753-2.717V2.737C23.991 1.219 22.772 0 21.272 0zm1.913 21.281a1.921 1.921 0 0 1-1.912 1.912H2.728a1.92 1.92 0 0 1-1.913-1.912v-8.456h22.369zm0-9.694H.815v-8.85A1.92 1.92 0 0 1 2.728.824h18.544c1.049 0 1.912.863 1.912 1.913v8.85zm-5.776-8.475H6.534c-.3 0-.544.263-.544.563V9.15c0 .3.226.563.544.563h10.875a.548.548 0 0 0 .544-.548v-.016.001-5.494-.001c0-.3-.243-.543-.543-.543h-.001z"/></svg>
